!!!OTL: ACH WAS THUT MIR MEIN HERZCHE SO WEH
!!!ARE: Europa, Mitteleuropa, Deutschland, Hessen, Odenwald
!!!SCT: E0574A
!!!YEM: Copyright 1995, estate of Helmut Schaffrath.
**kern
*ICvox
*Ivox
*M4/4
*k[b-]
*F:
=1
{4.f
8g
4a
8cc
8a
=2
8a
8g
8g
8g
4f
8r}
{8g
=3
8a
8g
8a
8cc
8dd
8cc
8cc
8cc
=4
8cc
8b-
4b-
4a
8r}
{8b-
=5
8a
8cc
8cc
8ff
4.dd}
{8cc
=6
8cc
8b-
8b-
8dd
4.cc}
{8b-
=7
8a
8g
8a
8b-
4cc
8cc}
{8cc
=8
4b-
4cc
2a}
==
!!!AGN: Liebes - Lied
!!!ONB: ESAC (Essen Associative Code) Database: ERK1
!!!AMT: simple quadruple
!!!AIN: vox
!!!EED: Helmut Schaffrath
!!!EEV: 1.0
*-
